X:1
T:Title
%%score { 1 | 2 }
L:1/8
Q:1/4=92
M:6/8
K:Bb
V:1 treble nm="Grand Piano"
V:2 bass 
V:1
 [DF][DF][DF] [DF][DF][DF] | [DF]3 .[B,D]3 | [DB][DB][DB] [DB][DB][DB] | A6 | BBB BAG | %5
w: E.~S.~Lorenz * * * * *|||||
 [Gd]3 .[Gc]3 | [GB][Gc][GB] [=EG][FA][EB] | c3- c2 _d | ddd ded | d3 .c3 | BBB BcB | %11
w: ||||||
 [D^FB]3 .[CFA]3 | [B,G][C^FA][B,GB] [B,GB][B,=FA][B,EG] | [B,DF][B,FB]c .d3 | %14
w: |||
 [Gd][Gc]G BBA[Q:1/4=89][Q:1/4=86][Q:1/4=83][Q:1/4=81][Q:1/4=78][Q:1/4=75][Q:1/4=72] | [DB]6 |] %16
w: ||
V:2
 [B,,B,][B,,B,][B,,B,] [B,,B,][B,,B,][B,,B,] | [B,,B,]3 .[B,,F,]3 | %2
 [G,,G,][G,,G,][G,,G,] [G,,G,][G,,G,][G,,G,] | [D,^F,D]6 | %4
 [G,D][G,B,D][G,DG] [G,DG][G,C^F][K:bass][G,B,] | [E,B,]3 .[E,C]3 | %6
 [=E,C][E,C][E,C] [C,C][C,C][C,G,] | [F,A,E]3- [F,A,E]2[K:treble] =E | %8
 [B,F][B,F][B,F] [B,F][B,G][B,F] | [F,B,F]3 .[F,A,E]3 | [G,D][G,B,D][G,CG] [G,DG][G,EG][G,DG] | %11
 D,3 .D,3 | E,E,E, E,E,E, | B,,D,[K:treble][F,A,F] .[B,F]3 | [E,B,][E,E][E,E] [F,DF][F,DF][F,CE] | %15
 [B,,B,]6 |] %16

